docs/icons/donut.svg

<svg width="28" height="28" viewBox="0 0 28 28" fill="none" xmlns="http://www.w3.org/2000/svg">
<path d="M28 14C28 21.732 21.732 28 14 28C6.26801 28 0 21.732 0 14C0 6.26801 6.26801 0 14 0C21.732 0 28 6.26801 28 14ZM7.875 14C7.875 17.3827 10.6173 20.125 14 20.125C17.3827 20.125 20.125 17.3827 20.125 14C20.125 10.6173 17.3827 7.875 14 7.875C10.6173 7.875 7.875 10.6173 7.875 14Z" fill="url(#paint0_linear_701_51435)"/>
<path fill-rule="evenodd" clip-rule="evenodd" d="M17.4622 0.431252C17.7893 0.514464 18.1119 0.609196 18.4294 0.714992C12.8993 3.84647 7.77164 7.83874 3.09718 12.1132C2.00007 13.1164 0.984363 14.1751 0.0601528 15.3019C0.0279067 14.9522 0.00852089 14.5988 0.00247192 14.2421C0.811237 13.3085 1.68136 12.4224 2.6064 11.5765C7.13613 7.43438 12.1033 3.54228 17.4622 0.431252ZM9.08002 27.1109C8.61489 26.9362 8.16151 26.7376 7.72141 26.5163C7.78335 26.4281 7.84499 26.3396 7.90632 26.2508C9.35884 24.1489 10.7298 21.9958 12.0416 19.8051C12.5219 19.9671 13.0287 20.0712 13.554 20.109C12.148 22.4762 10.6733 24.8053 9.10294 27.0777C9.09531 27.0888 9.08767 27.0998 9.08002 27.1109ZM14.8295 27.9758C14.6058 27.9889 14.3807 27.9967 14.1543 27.9991C18.5601 24.9707 22.9124 21.8622 27.2025 18.6703C27.1271 18.8834 27.0467 19.0942 26.9614 19.3024C22.9685 22.2647 18.9222 25.1549 14.8295 27.9758ZM22.6369 2.98053C22.2504 2.67719 21.8475 2.39374 21.4299 2.13173C20.7038 3.66196 19.9601 5.18642 19.1848 6.70539C18.7502 7.55691 18.3134 8.40685 17.8733 9.25454C18.2714 9.57987 18.6279 9.95431 18.9334 10.3686C19.4539 9.36969 19.9689 8.3686 20.4804 7.36666C21.2239 5.90982 21.9391 4.44706 22.6369 2.98053Z" fill="#FFF7EB"/>
<defs>
<linearGradient id="paint0_linear_701_51435" x1="0" y1="28" x2="28" y2="28" gradientUnits="userSpaceOnUse">
<stop stop-color="#FFAC0B"/>
<stop offset="1" stop-color="#FFC702"/>
</linearGradient>
</defs>
</svg>

<svg xmlns="http://www.w3.org/2000/svg" width="28" height="28" fill="none" xmlns:v="https://vecta.io/nano"><path d="M28 14c0 7.732-6.268 14-14 14S0 21.732 0 14 6.268 0 14 0s14 6.268 14 14zM7.875 14c0 3.383 2.742 6.125 6.125 6.125s6.125-2.742 6.125-6.125S17.383 7.875 14 7.875 7.875 10.617 7.875 14z" fill="url(#A)"/><path fill-rule="evenodd" d="M17.462.431l.967.284C12.899 3.846 7.772 7.839 3.097 12.113 2 13.116.984 14.175.06 15.302c-.032-.35-.052-.703-.058-1.06.809-.934 1.679-1.82 2.604-2.666C7.136 7.434 12.103 3.542 17.462.431zM9.08 27.111c-.465-.175-.919-.373-1.359-.595l.185-.265a117.52 117.52 0 0 0 4.135-6.446c.48.162.987.266 1.512.304-1.406 2.367-2.881 4.696-4.451 6.969l-.023.033zm5.749.865c-.224.013-.449.021-.675.023a428.21 428.21 0 0 0 13.048-9.329c-.075.213-.156.424-.241.632a428.4 428.4 0 0 1-12.132 8.673zm7.807-24.995a14.05 14.05 0 0 0-1.207-.849l-2.245 4.574-1.311 2.549c.398.325.755.7 1.06 1.114l1.547-3.002a175.84 175.84 0 0 0 2.157-4.386z" fill="#fff7eb"/><defs><linearGradient id="A" x1="0" y1="28" x2="28" y2="28" gradientUnits="userSpaceOnUse"><stop stop-color="#ffac0b"/><stop offset="1" stop-color="#ffc702"/></linearGradient></defs></svg>
